packages/base/core/src/svg/system/help.svg

<?xml version="1.0" encoding="UTF-8"?>
<svg width="24px" height="24px" viewBox="0 0 24 24" version="1.1" xmlns="http://www.w3.org/2000/svg" xmlns:xlink="http://www.w3.org/1999/xlink">
    <!-- Generator: Sketch 57.1 (83088) - https://sketch.com -->
    <title>Icons/System/help</title>
    <desc>Created with Sketch.</desc>
    <g id="Icons/System/help" stroke="none" stroke-width="1" fill="none" fill-rule="evenodd">
        <path d="M12,1 C18.0751322,1 23,5.92486775 23,12 C23,18.0751322 18.0751322,23 12,23 C5.92486775,23 1,18.0751322 1,12 C1,5.92486775 5.92486775,1 12,1 Z M12,3 C7.02943725,3 3,7.02943725 3,12 C3,16.9705627 7.02943725,21 12,21 C16.9705627,21 21,16.9705627 21,12 C21,7.02943725 16.9705627,3 12,3 Z M12,16.1 C12.5522847,16.1 13,16.5477153 13,17.1 C13,17.6522847 12.5522847,18.1 12,18.1 C11.4477153,18.1 11,17.6522847 11,17.1 C11,16.5477153 11.4477153,16.1 12,16.1 Z M12,5.9 C13.7957492,5.9 15.5,7.60425084 15.5,9.4 C15.5,10.8343015 14.4127659,12.2102312 13.060071,12.7060159 L13,12.726 L13,14.15 C13,14.5602687 12.6139598,15.0708547 12.1166211,15.1417024 L12,15.15 C11.4871642,15.15 11.0644928,14.6687189 11.0067277,14.2462124 L11,14.15 L11,12.15 C11,11.8594608 11.1936,11.5186122 11.483226,11.3192539 C11.6275376,11.2128567 11.8064283,11.15 12,11.15 C12.8292508,11.15 13.75,10.2292508 13.75,9.4 C13.75,8.57074916 12.8292508,7.65 12,7.65 C11.1707492,7.65 10.25,8.57074916 10.25,9.4 C10.25,9.88324916 9.85824916,10.275 9.375,10.275 C8.89175084,10.275 8.5,9.88324916 8.5,9.4 C8.5,7.60425084 10.2042508,5.9 12,5.9 Z M13,12.726 L12.8821947,12.7656245 L12.8821947,12.7656245 L13,12.726 L13,12.726 Z" id="Color" fill="#0050D7"></path>
    </g>
</svg>

<svg xmlns="http://www.w3.org/2000/svg" width="24" height="24" viewBox="0 0 24 24">
    <path fill="#0050D7" fill-rule="evenodd" d="M12 1c6.075 0 11 4.925 11 11s-4.925 11-11 11S1 18.075 1 12 5.925 1 12 1zm0 2a9 9 0 1 0 0 18 9 9 0 0 0 0-18zm0 13.1a1 1 0 1 1 0 2 1 1 0 0 1 0-2zm0-10.2c1.796 0 3.5 1.704 3.5 3.5 0 1.434-1.087 2.81-2.44 3.306l-.06.02v1.424c0 .41-.386.92-.883.992L12 15.15c-.513 0-.936-.481-.993-.904L11 14.15v-2c0-.29.194-.631.483-.83a.868.868 0 0 1 .517-.17c.83 0 1.75-.92 1.75-1.75S12.83 7.65 12 7.65s-1.75.92-1.75 1.75a.875.875 0 1 1-1.75 0c0-1.796 1.704-3.5 3.5-3.5zm1 6.826l-.118.04.118-.04z"/>
</svg>
